components/ui-node-icon/src/source/source.small.svg

<svg width="16" height="16" viewBox="0 0 16 16" fill="none" xmlns="http://www.w3.org/2000/svg">
  <path fill-rule="evenodd" clip-rule="evenodd" d="M9 2H3L3 14H12V5L10 5C9.44772 5 9 4.55228 9 4V2ZM13 5L9 1H3C2.44772 1 2 1.44772 2 2V14C2 14.5523 2.44772 15 3 15H12C12.5523 15 13 14.5523 13 14L13 5ZM5.14645 7.64645C4.95118 7.84171 4.95118 8.15829 5.14645 8.35355C5.34171 8.54882 5.65829 8.54882 5.85355 8.35355L7 7.20711L7 12C7 12.2761 7.22386 12.5 7.5 12.5C7.77614 12.5 8 12.2761 8 12L8 7.20711L9.14645 8.35355C9.34171 8.54882 9.65829 8.54882 9.85355 8.35355C10.0488 8.15829 10.0488 7.84171 9.85355 7.64645L7.85355 5.64645C7.75979 5.55268 7.63261 5.5 7.5 5.5C7.36739 5.5 7.24022 5.55268 7.14645 5.64645L5.14645 7.64645Z" fill="currentColor"/>
</svg>

<svg xmlns="http://www.w3.org/2000/svg" width="16" height="16" fill="none" viewBox="0 0 16 16">
  <path fill="currentColor" fill-rule="evenodd" d="M9 2H3v12h9V5h-2a1 1 0 0 1-1-1V2Zm4 3L9 1H3a1 1 0 0 0-1 1v12a1 1 0 0 0 1 1h9a1 1 0 0 0 1-1V5ZM5.146 7.646a.5.5 0 1 0 .708.708L7 7.207V12a.5.5 0 0 0 1 0V7.207l1.146 1.147a.5.5 0 1 0 .708-.708l-2-2a.5.5 0 0 0-.708 0l-2 2Z" clip-rule="evenodd"/>
</svg>
